X: 1
T: Rogue's March, The
C: Trad
M: 6/8
L: 1/8
R: Jig
K:Gmaj
Z: ABC transcription by Verge Roller
r: 32
|: A | "G" B2 B Bcd | "C" e2 e e3 | "G" d2 d d2 e | "D" d2  c  B2 A |
"G" B2 B Bcd | "C" e2 e e3 | "G" def gdB | [1 "D" A3 "G" G2 :| [2 "D" A3 "G" GBd |]
|: "G" g3 "D" f3 | "C" e3 "D" def | "G" g3 "D" f3 | "C" e3 "D" d2 c |
"G" B2 B Bcd | "C" e2 e e3 | "D" def "G" gdB | [1 "D" A3 "G" GBd :| [2 "D" A3 "G" G2 |]
